public/icons/oneInch.svg

<svg width="79" height="74" viewBox="0 0 79 74" fill="none" xmlns="http://www.w3.org/2000/svg">
<g clip-path="url(#clip0_651_3190)">
<path d="M18.6123 40.7714L20.6815 25.1415L2.73318 12.6154L19.1323 18.1998L23.0053 12.226L37.1471 3.4043L68.3188 20.6695L69.9343 47.0122L56.0471 66.4133L45.07 68.1042L50.7467 57.6584V47.6018L46.6192 39.748L42.4254 36.9557L35.9741 43.6415V50.7167L30.9393 55.4557L24.5434 56.2344L21.7106 57.8475L17.0631 56.3568L15.1266 49.3484L18.6123 44.4202V40.7714Z" fill="white"/>
<path d="M47.2721 12.4816C43.8528 11.7697 40.1127 11.9588 40.1127 11.9588C40.1127 11.9588 38.8844 17.6657 31.2713 19.1675C31.3266 19.1675 41.3299 22.6049 47.2721 12.4816Z" fill="#94A6C3"/>
<path d="M50.3704 64.2663C54.4979 61.0179 57.5962 56.5459 59.0237 51.4842C59.0901 51.2951 59.6655 50.9614 60.0528 50.7055C60.6946 50.3162 61.3475 49.9936 61.4692 49.4707C61.7237 47.98 61.8565 46.4226 61.8565 44.8652C61.8565 44.2867 61.27 43.6971 60.6946 43.1186C60.2409 42.7293 59.7872 42.2732 59.7872 41.9506C59.1454 36.0435 56.4343 30.5257 52.1077 26.5098L51.654 26.9659C55.8479 30.9262 58.5589 36.3104 59.1454 42.0173C59.2118 42.5402 59.7208 43.0519 60.2409 43.5747C60.6946 43.9641 61.2147 44.5537 61.2147 44.8095C61.2147 46.3002 61.0819 47.7909 60.8274 49.2816C60.761 49.5375 60.1856 49.8044 59.7319 50.0603C59.0901 50.3829 58.5036 50.7055 58.3819 51.2284C56.8327 56.7461 53.2807 61.5519 48.5667 64.6667C49.4077 62.8534 52.0524 56.9464 53.4688 53.9539L53.2143 44.3534L45.0147 36.3772L40.3672 37.0224L35.2659 45.3324C35.2659 45.3324 37.6561 48.3805 34.2922 51.9515C31.0057 55.4557 28.4163 56.2344 28.4163 56.2344L26.0262 54.9328C26.7344 54.0206 28.1618 52.6634 29.2573 51.7512C31.1274 50.1938 32.9975 50.0603 32.9975 48.3805C33.0749 44.8652 29.3237 45.833 29.3237 45.833L27.9627 47.1346L27.3872 51.9403L24.5545 55.5113L24.2336 55.4445L19.586 54.41C19.586 54.41 22.4299 52.9193 22.8836 51.2284C23.3373 49.6042 21.9762 44.2199 21.9098 43.8973C21.9762 43.9641 23.2709 45.0654 23.8463 46.8787C24.8754 44.0197 26.2364 41.2942 26.6237 41.0383C27.011 40.7825 32.234 37.9902 32.234 37.9902L30.4967 42.5958L31.7913 41.8838L34.8897 34.2302C34.8897 34.2302 37.9217 32.7395 40.179 32.7395C44.2401 32.6727 50.2487 27.6779 47.5376 18.7227C48.3122 19.0453 61.7348 25.7978 64.0585 39.0359C65.7958 49.2148 60.0528 58.7485 50.3704 64.2663Z" fill="#94A6C3"/>
<path d="M35.0114 13.9058C36.4942 12.1482 35.9188 9.55615 35.9188 9.55615L31.5922 15.9861C31.5258 15.9861 33.1303 16.0528 35.0114 13.9058Z" fill="#1B314F"/>
<path d="M20.4824 49.0144L21.0024 46.4224C21.0024 46.4224 18.8668 50.1824 18.6787 50.7053C18.4795 51.2949 18.8115 52.3295 19.6414 52.2627C20.4824 52.196 21.5115 50.9612 21.5115 50.0601C21.5115 48.892 20.4824 49.0144 20.4824 49.0144Z" fill="#1B314F"/>
<path d="M58.8245 7.74278C58.8245 7.74278 62.0557 7.87628 65.4085 8.26563C57.8508 2.29179 50.6913 0.545248 44.8819 0.545248C36.8815 0.545248 31.4594 3.86034 31.1274 4.04946L33.6504 0.0223979C33.6504 0.0223979 23.5807 -0.956557 20.0287 9.75631C19.1213 7.48692 18.2914 4.17183 18.2914 4.17183C18.2914 4.17183 13.0574 8.78848 15.5139 16.4421C9.50533 14.2395 0.929519 11.1802 0.597552 11.1246C0.143864 11.0579 0.0110774 11.2581 0.0110774 11.2581C0.0110774 11.2581 -0.121709 11.4472 0.265585 11.781C0.984847 12.3483 14.5402 22.416 17.5168 24.3627C16.875 26.6989 16.875 27.8002 17.5168 28.9015C18.4242 30.3922 18.4795 31.1709 18.3578 32.2723C18.225 33.3736 17.0631 42.9184 16.8086 44.0864C16.5541 45.2545 13.843 49.4039 13.9647 50.6388C14.0975 51.8736 15.7684 57.1243 17.2623 57.7139C18.3578 58.1033 21.0688 58.9487 22.8725 58.9487C23.5143 58.9487 24.1008 58.8152 24.3553 58.5594C25.4508 57.5916 25.7717 57.3913 26.5463 57.3913C26.6127 57.3913 26.6791 57.3913 26.7344 57.3913C27.0553 57.3913 27.4426 57.4581 27.8963 57.4581C28.9254 57.4581 30.2864 57.2578 31.2492 56.3567C32.6655 54.9328 35.1221 52.986 35.8967 52.0738C36.8705 50.839 37.3795 49.1592 37.125 47.4683C36.9258 45.9109 37.7668 44.5425 38.7405 43.1854C39.9688 41.5612 42.2262 38.6466 42.2262 38.6466C46.6856 42.0062 49.4631 47.1345 49.4631 52.8414C49.4631 62.9647 40.6881 71.1412 29.8438 71.1412C28.1619 71.1412 26.5574 70.952 24.9418 70.5627C29.9102 72.3092 34.1041 72.8988 37.5344 72.8988C44.8266 72.8988 48.6995 70.2401 48.6995 70.2401C48.6995 70.2401 47.3495 71.9977 45.1475 74.0002C45.2139 74.0002 45.2139 74.0002 45.2139 74.0002C57.2864 72.3092 63.1622 62.3195 63.1622 62.3195C63.1622 62.3195 62.7085 65.5678 62.1331 67.7704C78.1893 55.6336 75.4782 40.4487 75.4118 39.937C75.5446 40.1261 77.1602 42.0729 77.9901 43.1186C80.5794 16.3754 58.8245 7.74278 58.8245 7.74278ZM34.1041 50.4496C33.8496 50.7722 32.7541 51.7512 31.9795 52.4632C31.2049 53.1751 30.3639 53.8871 29.7221 54.5434C29.4676 54.7993 28.9475 54.9328 28.1729 54.9328C27.9184 54.9328 27.6528 54.9328 27.4647 54.9328C27.3319 54.9328 27.2102 54.9328 27.0774 54.9328C26.9446 54.9328 26.8783 54.9328 26.8229 54.9328C26.6237 54.9328 26.4356 54.9328 26.2365 54.9328C27.2102 53.6312 30.043 50.6499 31.0168 50.0047C32.1787 49.2259 32.7651 48.4472 32.0459 47.09C31.3377 45.7217 29.4676 46.0555 29.4676 46.0555C29.4676 46.0555 30.5631 45.5994 31.5369 45.5994C30.3086 45.2768 28.7594 45.5994 28.0512 46.3113C27.2766 47.0233 27.4094 49.5597 27.0885 51.1727C26.7676 52.8637 25.6721 53.7091 23.9901 55.2665C23.0828 56.112 22.441 56.3679 21.9209 56.3679C20.8254 56.1787 19.5307 55.845 18.6233 55.5224C17.9815 54.6769 17.0078 51.8847 16.7533 50.7166C16.9414 50.0714 17.716 48.7031 18.1033 47.9244C18.8779 46.4337 19.3315 45.5882 19.4643 44.8095C19.7188 43.7082 20.5598 36.8889 20.8807 34.041C21.7217 35.1424 22.8836 36.9668 22.618 38.1348C24.4881 35.4761 23.1381 32.873 22.4852 31.8384C21.9098 30.8038 21.1352 28.7235 21.777 26.5209C22.4188 24.3182 24.7426 18.2109 24.7426 18.2109C24.7426 18.2109 25.5172 19.5792 26.6127 19.3122C27.7082 19.0564 36.5496 5.68475 36.5496 5.68475C36.5496 5.68475 38.9397 10.9355 36.4168 14.7735C33.8385 18.6003 31.3155 19.3122 31.3155 19.3122C31.3155 19.3122 34.8676 19.9575 38.1541 17.5546C39.5041 20.7362 40.7987 24.0401 40.8651 24.4962C40.6659 24.9523 38.0877 31.182 37.8332 31.5714C37.7004 31.7049 36.8041 31.9608 36.1512 32.0943C35.0557 32.4169 34.4139 32.6171 34.1483 32.8062C33.6946 33.1956 31.6254 38.9024 30.6627 41.6947C29.5008 42.0173 28.3389 42.6736 27.4979 43.9641C27.9516 43.6415 29.368 43.4412 30.4082 43.3189C31.3155 43.2521 34.0819 44.7428 34.8012 47.535C34.8012 47.6018 34.8012 47.6018 34.8012 47.6685C34.945 48.692 34.6241 49.6709 34.1041 50.4496ZM28.0401 51.2284C28.6266 50.3829 28.5602 48.959 28.6266 48.5029C28.693 48.0468 28.8147 47.2013 29.3348 47.0789C29.8549 46.9454 31.0832 47.1457 31.0832 48.0468C31.0832 48.8922 30.1758 49.0813 29.534 49.6709C29.0692 50.1159 28.1619 51.0949 28.0401 51.2284ZM53.7897 38.8246C54.4315 35.5206 54.4979 32.6616 54.3098 30.3255C56.8217 33.6962 58.3708 37.79 58.8245 42.0062C58.8909 42.529 59.3999 43.0407 59.92 43.5636C60.3737 43.9529 60.8938 44.4758 60.8938 44.7984C60.8938 46.2891 60.761 47.7798 60.5065 49.2816C60.4401 49.4707 59.8647 49.8044 59.411 50.0603C58.7692 50.3829 58.1827 50.7055 58.061 51.2284C56.6446 56.2232 53.6016 60.6397 49.5405 63.7545C55.5381 57.4581 58.4372 47.0678 53.7897 38.8246ZM49.7286 64.333C53.9225 61.0846 57.1536 56.5459 58.57 51.4175C58.6364 51.2284 59.2118 50.8946 59.5991 50.6388C60.2409 50.3161 60.8938 49.9268 61.0155 49.4039C61.27 47.9133 61.4028 46.3558 61.4028 44.7984C61.4028 44.2199 60.8163 43.6303 60.2409 43.0519C59.92 42.6625 59.3999 42.2064 59.3999 41.8838C58.8799 37.1448 57.0098 32.6727 54.1106 28.9683C52.8159 21.1811 47.6594 18.7783 47.5266 18.7115C47.6594 18.9118 51.0122 23.7732 48.6885 29.48C46.2983 35.2536 40.168 34.3525 39.6479 34.4081C39.1278 34.4081 37.136 37.0001 34.6131 41.8059C34.2922 41.6724 32.9311 41.3498 31.3819 41.6168C32.5438 38.3685 34.2922 33.7629 34.6131 33.3736C34.7459 33.2401 35.7086 32.9842 36.3614 32.7951C37.5897 32.4725 38.1651 32.2722 38.3643 32.0164C38.4971 31.8161 39.1389 30.3255 39.7807 28.768C40.3672 28.768 41.85 28.6345 41.9717 28.5678C42.1045 28.4343 43.3327 25.2638 43.3327 24.8745C43.3327 24.5519 40.8098 18.2554 39.8471 15.8525C40.3008 15.3297 40.7545 14.6845 41.1971 13.9725C54.4315 15.4075 64.7667 26.6989 64.7667 40.382C64.7667 50.8946 58.6364 60.0501 49.7286 64.333Z" fill="#1B314F"/>
<path d="M32.5549 29.2909C33.7832 27.867 33.1414 25.2082 30.8729 24.7521C31.4594 23.3949 32.2893 20.6694 32.2893 20.6694C32.2893 20.6694 25.7053 31.0486 25.1299 31.2488C24.5434 31.449 23.968 29.1685 23.968 29.1685C22.7397 33.9076 26.0373 34.5528 26.4246 33.0621C28.2283 32.5949 31.3266 30.6481 32.5549 29.2909Z" fill="#1B314F"/>
<path d="M26.9336 31.8161L30.2864 26.0425C30.2864 26.0425 32.2229 27.0214 31.2491 28.5789C30.0319 30.3921 26.9336 31.8161 26.9336 31.8161Z" fill="#FFD923"/>
<path d="M68.4405 58.5593C67.4667 59.8609 66.3713 61.2181 65.0876 62.5196C73.4089 46.4225 65.4749 31.6937 65.154 31.1152C65.7405 31.7048 66.3159 32.35 66.836 32.9285C73.2208 40.0593 73.9954 50.7722 68.4405 58.5593Z" fill="#D82122"/>
<path d="M76.1864 37.8564C73.2761 30.0026 69.1487 23.3167 60.0528 17.2873C51.2778 11.4469 41.85 11.903 41.3299 11.9698C41.2635 11.9698 41.1971 11.9698 41.1971 11.9698C41.518 11.8363 41.8389 11.7695 42.1598 11.7139C44.1627 11.0687 46.7409 10.5459 49.3303 10.2232C56.1799 9.23316 63.0848 11.5693 67.7987 16.5753C67.8651 16.6421 67.8651 16.6421 67.9315 16.7088C73.2872 22.4157 76.0647 29.5465 76.1864 37.8564Z" fill="#D82122"/>
<path d="M57.9835 5.72926C48.3675 3.91597 42.1708 4.81705 37.7114 6.50798C37.5786 5.98512 37.1249 4.95055 36.7376 4.10509C35.3987 5.72926 33.9713 7.67604 33.0749 8.91086C30.6184 10.6018 29.5893 12.226 29.5893 12.226C31.0057 7.35344 35.1442 3.72686 40.179 2.81465C41.5954 2.55879 43.1446 2.42529 44.8266 2.42529C49.2749 2.49204 53.7233 3.59336 57.9835 5.72926Z" fill="#D82122"/>
<path d="M22.4188 18.1883C14.8721 17.9324 17.384 9.09962 17.5168 8.58789C17.5168 8.65464 18.0258 15.5296 22.4188 18.1883Z" fill="#D82122"/>
<path d="M29.8438 2.2915C24.0344 5.79571 25.1963 14.1613 25.1963 14.1613C19.6414 5.67334 29.3901 2.49174 29.8438 2.2915Z" fill="#D82122"/>
<path d="M20.2943 20.5247C20.6815 20.8473 21.0688 21.4369 20.6152 22.2824C20.3606 22.7385 19.9734 22.6717 19.3869 22.4159C18.6123 22.0265 13.9648 19.301 9.7709 16.5088C14.5512 18.1997 19.3869 20.013 20.1615 20.4024C20.1615 20.4024 20.2279 20.4691 20.2943 20.5247Z" fill="white"/>
</g>
<defs>
<clipPath id="clip0_651_3190">
<rect width="78.2114" height="74" fill="white"/>
</clipPath>
</defs>
</svg>

<svg width="79" height="74" fill="none" xmlns="http://www.w3.org/2000/svg"><g clip-path="url(#a)"><path d="m18.612 40.771 2.07-15.63L2.732 12.616l16.4 5.585 3.872-5.974 14.142-8.822L68.32 20.67l1.615 26.342-13.887 19.401-10.977 1.691 5.677-10.446V47.602l-4.128-7.854-4.194-2.792-6.45 6.685v7.076l-5.036 4.739-6.396.778-2.832 1.613-4.648-1.49-1.936-7.009 3.485-4.928v-3.649Z" fill="#fff"/><path d="M47.272 12.482c-3.42-.712-7.16-.523-7.16-.523s-1.228 5.707-8.84 7.209c.055 0 10.058 3.437 16-6.686ZM50.37 64.266c4.128-3.248 7.226-7.72 8.654-12.782.066-.189.642-.523 1.029-.779.642-.389 1.294-.711 1.416-1.234.255-1.491.387-3.048.387-4.606 0-.578-.586-1.168-1.161-1.746-.454-.39-.908-.846-.908-1.168-.642-5.907-3.353-11.425-7.68-15.441l-.453.456c4.194 3.96 6.905 9.344 7.491 15.051.067.523.576 1.035 1.096 1.558.454.39.974.979.974 1.234 0 1.491-.133 2.982-.388 4.473-.066.256-.641.522-1.095.778-.642.323-1.228.645-1.35 1.168-1.55 5.518-5.101 10.324-9.815 13.439.84-1.814 3.485-7.72 4.902-10.713l-.255-9.6-8.2-7.977-4.647.645-5.101 8.31s2.39 3.048-.974 6.62c-3.286 3.504-5.876 4.282-5.876 4.282l-2.39-1.301c.708-.912 2.136-2.27 3.231-3.182 1.87-1.557 3.74-1.69 3.74-3.37.078-3.516-3.673-2.548-3.673-2.548l-1.361 1.302-.576 4.805-2.832 3.571-.321-.067-4.648-1.034s2.844-1.49 3.298-3.182c.453-1.624-.908-7.008-.974-7.33.066.066 1.36 1.167 1.936 2.98 1.03-2.858 2.39-5.584 2.778-5.84.387-.255 5.61-3.048 5.61-3.048l-1.737 4.606 1.294-.712 3.099-7.654s3.032-1.49 5.289-1.49c4.061-.067 10.07-5.062 7.359-14.017.774.322 14.197 7.075 16.52 20.313 1.738 10.179-4.005 19.712-13.688 25.23Z" fill="#94A6C3"/><path d="M35.011 13.906c1.483-1.758.908-4.35.908-4.35l-4.327 6.43c-.066 0 1.538.067 3.42-2.08ZM20.482 49.014l.52-2.592s-2.135 3.76-2.323 4.283c-.2.59.133 1.625.962 1.558.841-.067 1.87-1.302 1.87-2.203 0-1.168-1.029-1.046-1.029-1.046Z" fill="#1B314F"/><path d="M58.825 7.743s3.23.133 6.584.523C57.85 2.292 50.69.546 44.882.546c-8 0-13.423 3.314-13.755 3.503L33.65.022S23.58-.957 20.03 9.756c-.908-2.27-1.738-5.584-1.738-5.584s-5.234 4.616-2.777 12.27C9.505 14.24.93 11.18.598 11.125c-.454-.067-.587.133-.587.133s-.133.19.255.523c.719.567 14.274 10.635 17.25 12.582-.641 2.336-.641 3.437 0 4.538.908 1.491.964 2.27.842 3.371-.133 1.102-1.295 10.646-1.55 11.814-.254 1.169-2.965 5.318-2.843 6.553.133 1.235 1.803 6.485 3.297 7.075 1.096.39 3.807 1.235 5.61 1.235.642 0 1.229-.134 1.483-.39 1.096-.967 1.417-1.168 2.191-1.168h.188c.321 0 .709.067 1.162.067 1.03 0 2.39-.2 3.353-1.101 1.417-1.424 3.873-3.371 4.648-4.283a6.049 6.049 0 0 0 1.228-4.606c-.2-1.557.642-2.926 1.615-4.283 1.229-1.624 3.486-4.538 3.486-4.538 4.46 3.36 7.237 8.488 7.237 14.194 0 10.124-8.775 18.3-19.62 18.3-1.681 0-3.286-.189-4.901-.578 4.968 1.746 9.162 2.336 12.592 2.336 7.293 0 11.166-2.659 11.166-2.659s-1.35 1.758-3.553 3.76h.067c12.072-1.69 17.948-11.68 17.948-11.68s-.453 3.248-1.029 5.45C78.19 55.634 75.478 40.45 75.412 39.937c.133.19 1.748 2.136 2.578 3.182C80.58 16.375 58.825 7.743 58.825 7.743ZM34.105 50.45c-.255.322-1.35 1.301-2.125 2.013-.775.712-1.616 1.424-2.258 2.08-.254.256-.774.39-1.55.39h-1.936c.974-1.302 3.807-4.283 4.78-4.928 1.163-.78 1.75-1.558 1.03-2.915-.708-1.368-2.578-1.035-2.578-1.035s1.095-.456 2.069-.456c-1.228-.322-2.778 0-3.486.712-.774.712-.642 3.249-.962 4.862-.321 1.69-1.417 2.536-3.099 4.093-.907.846-1.549 1.102-2.07 1.102-1.095-.19-2.39-.523-3.297-.846-.642-.845-1.615-3.637-1.87-4.805.188-.646.963-2.014 1.35-2.793.775-1.49 1.228-2.336 1.361-3.114.255-1.102 1.096-7.921 1.417-10.769.84 1.101 2.003 2.926 1.737 4.094 1.87-2.659.52-5.262-.133-6.297-.575-1.034-1.35-3.114-.708-5.317.642-2.203 2.966-8.31 2.966-8.31s.774 1.368 1.87 1.101c1.095-.256 9.937-13.627 9.937-13.627s2.39 5.25-.133 9.088c-2.578 3.827-5.102 4.54-5.102 4.54s3.553.645 6.84-1.758c1.35 3.181 2.644 6.485 2.71 6.941-.2.456-2.777 6.686-3.032 7.075-.133.134-1.029.39-1.682.523-1.095.323-1.737.523-2.003.712-.453.39-2.523 6.096-3.485 8.889-1.162.322-2.324.979-3.165 2.27.454-.324 1.87-.524 2.91-.646.907-.067 3.674 1.424 4.393 4.216v.134c.144 1.023-.177 2.002-.697 2.78Zm-6.065.778c.587-.845.52-2.269.587-2.725.066-.456.188-1.302.708-1.424.52-.134 1.748.067 1.748.968 0 .845-.907 1.034-1.549 1.624-.465.445-1.372 1.424-1.494 1.557Zm25.75-12.403c.642-3.304.708-6.163.52-8.5 2.512 3.371 4.06 7.465 4.514 11.681.067.523.576 1.035 1.096 1.558.454.389.974.912.974 1.234 0 1.491-.133 2.982-.387 4.484-.067.189-.642.522-1.096.778-.642.323-1.228.645-1.35 1.168-1.416 4.995-4.46 9.412-8.52 12.526 5.997-6.296 8.896-16.686 4.249-24.93Zm-4.061 25.508c4.194-3.248 7.425-7.787 8.841-12.916.066-.189.642-.522 1.03-.778.64-.323 1.294-.712 1.416-1.235.254-1.49.387-3.048.387-4.606 0-.578-.587-1.168-1.162-1.746-.321-.39-.841-.846-.841-1.168-.52-4.74-2.39-9.211-5.29-12.916-1.294-7.787-6.45-10.19-6.583-10.256.132.2 3.485 5.061 1.161 10.768-2.39 5.774-8.52 4.872-9.04 4.928-.52 0-2.512 2.592-5.035 7.398-.32-.134-1.682-.456-3.231-.19 1.162-3.248 2.91-7.853 3.231-8.242.133-.134 1.096-.39 1.748-.579 1.229-.323 1.804-.523 2.003-.779.133-.2.775-1.69 1.417-3.248.586 0 2.069-.134 2.19-.2.134-.134 1.362-3.304 1.362-3.694 0-.322-2.523-6.619-3.486-9.021.454-.523.907-1.168 1.35-1.88 13.234 1.434 23.57 12.726 23.57 26.409 0 10.513-6.13 19.668-15.038 23.951Z" fill="#1B314F"/><path d="M32.555 29.29c1.228-1.423.586-4.082-1.682-4.538.586-1.357 1.416-4.083 1.416-4.083s-6.584 10.38-7.16 10.58c-.586.2-1.161-2.08-1.161-2.08-1.228 4.739 2.07 5.384 2.457 3.893 1.803-.467 4.902-2.414 6.13-3.771Z" fill="#1B314F"/><path d="m26.934 31.816 3.352-5.773s1.937.978.963 2.536c-1.217 1.813-4.315 3.237-4.315 3.237Z" fill="#FFD923"/><path d="M68.44 58.56c-.973 1.3-2.069 2.658-3.352 3.96 8.32-16.098.387-30.826.066-31.405.587.59 1.162 1.235 1.682 1.814 6.385 7.13 7.16 17.843 1.605 25.63ZM76.186 37.856c-2.91-7.853-7.037-14.54-16.133-20.569-8.775-5.84-18.203-5.384-18.723-5.317h-.133c.321-.134.642-.2.963-.256 2.003-.645 4.58-1.168 7.17-1.49 6.85-.99 13.755 1.345 18.469 6.351l.132.134c5.356 5.707 8.134 12.838 8.255 21.147ZM57.983 5.73c-9.615-1.814-15.812-.913-20.272.778-.132-.523-.586-1.557-.973-2.403-1.34 1.624-2.767 3.571-3.663 4.806-2.457 1.69-3.486 3.315-3.486 3.315 1.417-4.873 5.555-8.5 10.59-9.411 1.416-.256 2.966-.39 4.648-.39 4.448.067 8.896 1.168 13.157 3.304ZM22.419 18.188c-7.547-.256-5.035-9.088-4.902-9.6 0 .067.509 6.942 4.902 9.6ZM29.844 2.292c-5.81 3.504-4.648 11.87-4.648 11.87-5.555-8.489 4.194-11.67 4.648-11.87Z" fill="#D82122"/><path d="M20.294 20.525c.387.322.775.912.321 1.757-.254.456-.642.39-1.228.134-.775-.39-5.422-3.115-9.616-5.907 4.78 1.69 9.616 3.504 10.39 3.893 0 0 .067.067.133.123Z" fill="#fff"/></g><defs><clipPath id="a"><path fill="#fff" d="M0 0h78.211v74H0z"/></clipPath></defs></svg>
